X: 1
T: When Charlie Comes
C:
R: reel
B: Logan's Collection of Highland Bagpipe Music v.3 p.21 #29
F: http://www.ceolsean.net/content/Logan/Book03/Book03%2021.pdf
Z: 2015 John Chambers <jc:trillian.mit.edu>
M: C|
L: 1/8
K: Hp
a |\
A>{GdG}A{e}A{d}B {gef}e>A{GAG}Aa | A>{GdG}A{e}A{d}B {g}dB{g}G{d}B |\
{g}A>{GdG}A{e}A{d}B {g}AB{g}cd | {g}eg{a}dg {a}dg {a}B{d}G{e}G :|
B |\
{g}Aa{f}ag aA{GAG}A{d}B | {g}Aa{f}af {a}gG{e}G{d}B |\
Aa{f}ag a{G}d{G}af | {a}gadg {a}B{d}G{e}G{d}B |\
{g}Aaea c{d}A{e}A{d}c |
{g}Aaef {a}gG{g}dB |\
{g}Aaea faeg | {a}faef {a}gGdc ||\
{g}B>{GdG}B{e}B{d}c {g}fB{G}B{d}c | {g}B>{GdG}BB{d}c {g}ec{g}A{d}c |
{g}B>{GdG}B{e}B{d}c {g}Bcde | {g}faea c{d}A{e}A{d}c |\
{g}B>{GdG}B{e}B{d}c {g}fB{G}Ba | B>{GdG}B{e}B{d}c {g}eA{g}ec |
{g}B>{GdG}B{e}B{d}c {Gdc}d2{c}df | {gfg}f2{g}ed {g}c{d}A{e}A{d}c ||\
{g}B{GdG}B{g}fe {g}fB{G}B{d}c | {g}B{GdG}Baf {g}ec{g}Ac |\
{b}B{GdG}B{g}fe {g}fB{g}fg |
{ag}a2ed {g}c{d}A{e}A{d}c |\
{G}B{GdG}B{g}fe {g}fB{G}Bc | {g}B{GdG}Baf {g}eA{g}ec |\
{g}B>{GdG}B{e}B{d}c {Gdc}d2{c}de | {gfg}f2ed {g}c{d}A{e}A |]
